modules/hawcons-stroke/icons/cloud-moon-rain.svg

<?xml version="1.0" encoding="UTF-8" standalone="no"?>
<svg width="32px" height="32px" viewBox="0 0 32 32" version="1.1" xmlns="http://www.w3.org/2000/svg" xmlns:xlink="http://www.w3.org/1999/xlink" xmlns:sketch="http://www.bohemiancoding.com/sketch/ns">
    <!-- Generator: Sketch 3.0.3 (7891) - http://www.bohemiancoding.com/sketch -->
    <title>icon 6 cloud moon rain</title>
    <desc>Created with Sketch.</desc>
    <defs></defs>
    <g id="Page-1" stroke="none" stroke-width="1" fill="none" fill-rule="evenodd" sketch:type="MSPage">
        <g id="icon-6-cloud-moon-rain" sketch:type="MSArtboardGroup" fill="#929292">
            <path d="M7.10100919,15.096758 C5.32460991,15.5063396 4,17.0992133 4,18.9946037 C4,21.2037427 5.79793835,22.9946037 8.00281647,22.9946037 L24.9971835,22.9946037 C27.207878,22.9946037 29,21.1992475 29,18.9946037 C29,17.1171611 27.70144,15.5418196 25.9581226,15.1110783 L25.9581226,15.1110783 C25.9857342,14.9095321 26,14.7037339 26,14.4946037 C26,12.0093222 23.9852815,9.99460366 21.5,9.99460366 C20.2744589,9.99460366 19.1633432,10.4845166 18.3518132,11.2791823 C17.3608691,9.33000957 15.336385,7.99460366 13,7.99460366 C9.68629134,7.99460366 7,10.680895 7,13.9946037 C7,14.3710941 7.03467626,14.7394854 7.10100919,15.096758 L7.10100919,15.096758 L7.10100919,15.096758 Z M25.2749382,10.4946037 C26.0264591,9.7851122 26.5780984,8.86615275 26.8364888,7.83109247 C26.9242079,7.4797073 26.9781305,7.11494167 26.9946037,6.74044857 C26.5269611,6.9050627 26.0239372,6.99460366 25.5,6.99460366 C23.0147185,6.99460366 21,4.97988516 21,2.49460366 C21,1.97066642 21.089541,1.46764261 21.2541551,1 C20.879662,1.01647312 20.5148964,1.07039573 20.1635112,1.15811484 C17.7718077,1.75517509 16,3.91797533 16,6.49460366 C16,6.92191619 16.0487309,7.337847 16.1409385,7.73714197 C15.1963581,7.26207976 14.1294153,6.99460366 13,6.99460366 C9.13400656,6.99460366 6,10.1286102 6,13.9946037 C6,14.1327545 6.00400207,14.2699707 6.01189661,14.4061425 C4.23965876,15.1762121 3,16.9437347 3,18.9946037 C3,21.7560274 5.23249418,23.9946037 7.99943992,23.9946037 L25.0005601,23.9946037 C27.7616745,23.9946037 30,21.7504085 30,18.9946037 C30,16.9429423 28.7676457,15.1798968 26.9993494,14.4091332 C26.9758595,12.8672373 26.3178749,11.4792133 25.2749382,10.4946037 L25.2749382,10.4946037 L25.2749382,10.4946037 Z M24.4770358,9.86917711 C25.046841,9.36611221 25.4882557,8.72097729 25.7458449,7.98920732 C25.6643448,7.99279233 25.5823839,7.99460366 25.5,7.99460366 C22.4624337,7.99460366 20,5.53216993 20,2.49460366 C20,2.41221974 20.0018113,2.33025889 20.0053963,2.24875875 C18.2547894,2.86498709 17,4.5332594 17,6.49460366 C17,7.29410506 17.2084979,8.04490915 17.5740867,8.69560895 C17.959598,9.02867845 18.3083804,9.40310764 18.6135384,9.81200101 C19.4525719,9.29370067 20.441357,8.99460366 21.5,8.99460366 C22.5969862,8.99460366 23.6189624,9.31575913 24.4770358,9.86917711 L24.4770358,9.86917711 L24.4770358,9.86917711 Z M10.5,25 C10.2238576,25 10,25.2157526 10,25.495389 L10,27.504611 C10,27.7782068 10.2319336,28 10.5,28 C10.7761424,28 11,27.7842474 11,27.504611 L11,25.495389 C11,25.2217932 10.7680664,25 10.5,25 L10.5,25 Z M13.5,27 C13.2238576,27 13,27.2157526 13,27.495389 L13,29.504611 C13,29.7782068 13.2319336,30 13.5,30 C13.7761424,30 14,29.7842474 14,29.504611 L14,27.495389 C14,27.2217932 13.7680664,27 13.5,27 L13.5,27 Z M16.5,25 C16.2238576,25 16,25.2157526 16,25.495389 L16,27.504611 C16,27.7782068 16.2319336,28 16.5,28 C16.7761424,28 17,27.7842474 17,27.504611 L17,25.495389 C17,25.2217932 16.7680664,25 16.5,25 L16.5,25 Z M19.5,27 C19.2238576,27 19,27.2157526 19,27.495389 L19,29.504611 C19,29.7782068 19.2319336,30 19.5,30 C19.7761424,30 20,29.7842474 20,29.504611 L20,27.495389 C20,27.2217932 19.7680664,27 19.5,27 L19.5,27 Z M22.5,25 C22.2238576,25 22,25.2157526 22,25.495389 L22,27.504611 C22,27.7782068 22.2319336,28 22.5,28 C22.7761424,28 23,27.7842474 23,27.504611 L23,25.495389 C23,25.2217932 22.7680664,25 22.5,25 L22.5,25 Z" id="cloud-moon-rain" sketch:type="MSShapeGroup"></path>
        </g>
    </g>
</svg>

<svg width="32" height="32" xmlns="http://www.w3.org/2000/svg"><path d="M7.101 15.097A4.006 4.006 0 0 0 4 18.995c0 2.209 1.798 4 4.003 4h16.994a4.004 4.004 0 0 0 4.003-4 4.006 4.006 0 0 0-3.042-3.884 4.5 4.5 0 0 0-7.606-3.832 6 6 0 0 0-11.25 3.818H7.1zm18.174-4.602a5.495 5.495 0 0 0 1.72-3.755A4.5 4.5 0 0 1 21.255 1a5.502 5.502 0 0 0-5.113 6.737 7 7 0 0 0-10.129 6.669 5.006 5.006 0 0 0-3.013 4.589c0 2.761 2.232 5 5 5h17c2.762 0 5-2.245 5-5a4.998 4.998 0 0 0-3-4.586 5.484 5.484 0 0 0-1.725-3.914zm-.798-.626a4.506 4.506 0 0 0 1.269-1.88 5.5 5.5 0 0 1-5.74-5.74 4.502 4.502 0 0 0-2.432 6.447c.386.333.734.707 1.04 1.116a5.474 5.474 0 0 1 2.886-.817c1.097 0 2.119.32 2.977.874zM10.5 25c-.276 0-.5.216-.5.495v2.01c0 .273.232.495.5.495.276 0 .5-.216.5-.495v-2.01a.503.503 0 0 0-.5-.495zm3 2c-.276 0-.5.216-.5.495v2.01c0 .273.232.495.5.495.276 0 .5-.216.5-.495v-2.01a.503.503 0 0 0-.5-.495zm3-2c-.276 0-.5.216-.5.495v2.01c0 .273.232.495.5.495.276 0 .5-.216.5-.495v-2.01a.503.503 0 0 0-.5-.495zm3 2c-.276 0-.5.216-.5.495v2.01c0 .273.232.495.5.495.276 0 .5-.216.5-.495v-2.01a.503.503 0 0 0-.5-.495zm3-2c-.276 0-.5.216-.5.495v2.01c0 .273.232.495.5.495.276 0 .5-.216.5-.495v-2.01a.503.503 0 0 0-.5-.495z" fill="#929292" fill-rule="evenodd"/></svg>
